X:2443
T:Polska från Norrland
T:Svenska Folkdansar H1 nr 26
O:Norrland
B:Traditioner av Svenska Folkdansar Häfte 1, nr 26
R:Polska
Z:Nils L
M:3/4
L:1/8
K:Am
E/ | E>^G A2 (Bc) | (ec) (A=G) E2 | (G>F) (DE FG) | (AG2<) E2D |
(E>D) E2 (GA) | (EF) D2 C2 | E>E ^G2 A>B | c>B A2 z2 :|
(:musicend:)
(:music:)
